X: 39500
T: Tattie Ball, The
R: reel
M: 4/4
K: Amajor
AcBc AFFA|~E2ED EFAB|AcBc AF~F2|effe ~f3 z:|
faef cB~B2|eAce fB~B2|faef cB~B2|effe ~f3 z|
faef cB~B2|eAcA B3d|c3f ecBc|AFFE ~F3z||

